public/Js-Dc4NxB02.svg

<svg width="82" height="82" viewBox="0 0 82 82" fill="none" xmlns="http://www.w3.org/2000/svg">
<g clip-path="url(#clip0_9_79890)">
<path d="M43.4027 81.0421L73.6503 52.3697C74.2466 51.8043 74.6245 51.0469 74.7177 50.2306L80.004 3.88875C80.2406 1.81633 78.6196 0 76.5338 0H5.46602C3.38014 0 1.7592 1.81633 1.99559 3.88875L7.28187 50.2306C7.37492 51.0469 7.75289 51.8045 8.34931 52.3697L38.5969 81.0421C39.9443 82.3194 42.0555 82.3194 43.4027 81.0421Z" fill="#FFE177"/>
<path d="M76.5335 0H73.3233C75.4092 0 77.03 1.81633 76.7936 3.88875L71.5073 50.2308C71.4141 51.0471 71.0363 51.8045 70.4399 52.3698L40.1923 81.0421C39.9485 81.2732 39.6791 81.4611 39.3945 81.6084C40.6835 82.2759 42.299 82.0881 43.4026 81.0421L73.6502 52.3697C74.2465 51.8045 74.6244 51.0469 74.7176 50.2306L80.0039 3.88859C80.2403 1.81633 78.6194 0 76.5335 0Z" fill="#FFD15B"/>
<path d="M13.9841 48.0706L9.50098 8.76968C9.41033 7.97434 10.0322 7.27734 10.8327 7.27734H71.1616C71.9621 7.27734 72.5841 7.97434 72.4933 8.76968L68.0104 48.0706C67.9747 48.3838 67.8296 48.6745 67.6007 48.8914L41.9193 73.2353C41.4023 73.7254 40.5921 73.7254 40.0751 73.2353L14.3938 48.8914C14.1649 48.6745 14.0199 48.3838 13.9841 48.0706Z" fill="#F5F8F9"/>
<path d="M71.1638 7.27734H67.0789C67.8793 7.27734 68.5014 7.97434 68.4106 8.76968L63.9276 48.0706C63.8919 48.3838 63.7468 48.6745 63.518 48.8914L38.957 72.1733L40.0773 73.2353C40.5943 73.7254 41.4045 73.7254 41.9215 73.2353L67.6029 48.8912C67.8318 48.6744 67.9769 48.3837 68.0126 48.0704L72.4955 8.76952C72.5862 7.97418 71.9643 7.27734 71.1638 7.27734Z" fill="#E8EDF2"/>
<path d="M35.5289 29.8516C35.1388 29.8516 34.755 29.6677 34.5143 29.324L31.6458 25.2296C31.3472 24.8033 31.3472 24.2359 31.6458 23.8095L34.5143 19.715C34.9064 19.1555 35.6782 19.0193 36.2379 19.4116C36.7977 19.8039 36.9335 20.5755 36.5413 21.1352L34.17 24.5198L36.5413 27.9042C36.9335 28.464 36.7977 29.2356 36.2379 29.6278C36.0217 29.7787 35.7741 29.8516 35.5289 29.8516Z" fill="#7A8C98"/>
<path d="M46.4748 29.8518C46.2296 29.8518 45.982 29.7791 45.7658 29.6278C45.206 29.2355 45.0702 28.4639 45.4624 27.9041L47.8337 24.5197L45.4624 21.1351C45.0702 20.5754 45.206 19.8038 45.7658 19.4115C46.3257 19.0195 47.0973 19.1553 47.4894 19.7149L50.3579 23.8094C50.6565 24.2358 50.6565 24.8032 50.3579 25.2295L47.4894 29.3239C47.2487 29.6678 46.8646 29.8516 46.4748 29.8518Z" fill="#7A8C98"/>
<path d="M39.1196 29.6553C38.9388 29.6553 38.7552 29.6156 38.5816 29.5314C37.9665 29.2338 37.7089 28.4937 38.0067 27.8786L41.7787 20.0818C42.0759 19.4667 42.816 19.2087 43.4315 19.5069C44.0466 19.8044 44.3042 20.5445 44.0064 21.1597L40.2344 28.9564C40.0209 29.3981 39.5794 29.6553 39.1196 29.6553Z" fill="#7A8C98"/>
<path d="M49.12 14.9669H32.8858C32.2023 14.9669 31.6484 14.4129 31.6484 13.7296C31.6484 13.046 32.2024 12.4922 32.8858 12.4922H49.12C49.8036 12.4922 50.3574 13.0462 50.3574 13.7296C50.3574 14.4129 49.8034 14.9669 49.12 14.9669Z" fill="#7A8C98"/>
<path d="M75.3857 59.9872H6.61429C2.96129 59.9872 0 57.0259 0 53.3729V42.2315C0 38.5785 2.96129 35.6172 6.61429 35.6172H75.3856C79.0386 35.6172 81.9998 38.5785 81.9998 42.2315V53.3729C82 57.0259 79.0387 59.9872 75.3857 59.9872Z" fill="#FFF3BE"/>
<path d="M75.3849 35.6172H70.8477C74.5007 35.6172 77.4621 38.5785 77.4621 42.2316V53.3731C77.4621 57.0261 74.5008 59.9874 70.8477 59.9874H75.3849C79.0379 59.9874 81.9993 57.0261 81.9993 53.3731V42.2316C81.9993 38.5785 79.038 35.6172 75.3849 35.6172Z" fill="#FEDBA6"/>
<path d="M20.9899 49.0411H18.6553C17.9718 49.0411 17.418 48.4872 17.418 47.8038C17.418 47.1204 17.9719 46.5664 18.6553 46.5664H20.9899C21.6735 46.5664 22.2273 47.1204 22.2273 47.8038C22.2273 48.4872 21.6735 49.0411 20.9899 49.0411Z" fill="#FFD15B"/>
<path d="M63.3493 49.0411H61.0147C60.3312 49.0411 59.7773 48.4872 59.7773 47.8038C59.7773 47.1204 60.3313 46.5664 61.0147 46.5664H63.3493C64.0329 46.5664 64.5867 47.1204 64.5867 47.8038C64.5867 48.4872 64.0329 49.0411 63.3493 49.0411Z" fill="#FFD15B"/>
<path d="M40.9991 67.1176C40.3155 67.1176 39.7617 66.5636 39.7617 65.8802V64.4366C39.7617 63.753 40.3157 63.1992 40.9991 63.1992C41.6825 63.1992 42.2365 63.7532 42.2365 64.4366V65.8802C42.2365 66.5636 41.6825 67.1176 40.9991 67.1176Z" fill="#FFD15B"/>
<path d="M32.9715 55.507C31.6812 55.507 30.5731 54.7945 30.0002 54.2182C29.5187 53.7334 29.5211 52.9498 30.0057 52.468C30.4882 51.9888 31.2664 51.9887 31.7487 52.4666C31.8001 52.5159 32.679 53.3407 33.5011 52.884C33.9282 52.6468 34.1938 52.1813 34.1938 51.6692V41.3389C34.1938 40.6554 34.7478 40.1016 35.4311 40.1016C36.1147 40.1016 36.6685 40.6555 36.6685 41.3389V51.6692C36.6685 53.0798 35.9151 54.3742 34.7021 55.0478C34.1107 55.3761 33.5243 55.507 32.9715 55.507Z" fill="#7A8C98"/>
<path d="M47.2338 55.502C45.157 55.502 43.1304 54.6338 41.8127 53.1796C41.3538 52.6731 41.3923 51.8906 41.8987 51.4318C42.4048 50.9731 43.1874 51.0112 43.6464 51.5178C44.503 52.4629 45.844 53.0273 47.2336 53.0273C48.6808 53.0273 49.7076 52.1216 49.8639 51.246C50.02 50.3712 49.3142 49.5764 47.9276 49.0648C45.9348 48.3297 44.1658 47.5425 44.0915 47.5094C44.0319 47.4828 43.9746 47.4516 43.9198 47.4157C42.6818 46.6085 42.0439 45.1921 42.2553 43.7196C42.482 42.1405 43.6428 40.8523 45.2845 40.3576C48.6214 39.3526 51.3762 41.6236 51.492 41.7209C52.0153 42.1607 52.0827 42.9412 51.6431 43.4643C51.2047 43.9859 50.4276 44.0547 49.9046 43.6195C49.8714 43.5924 48.0296 42.1156 45.9985 42.7274C45.2783 42.9443 44.7949 43.4467 44.7052 44.0713C44.6353 44.559 44.8202 45.01 45.2024 45.2943C45.6047 45.4709 47.1353 46.1346 48.7844 46.743C51.8264 47.8651 52.5953 50.0294 52.3005 51.6808C51.9113 53.8591 49.7334 55.502 47.2338 55.502Z" fill="#7A8C98"/>
</g>
<defs>
<clipPath id="clip0_9_79890">
<rect width="82" height="82" fill="white"/>
</clipPath>
</defs>
</svg>

<svg xmlns="http://www.w3.org/2000/svg" width="82" height="82" fill="none" viewBox="0 0 82 82"><g clip-path="url(#a)"><path fill="#ffe177" d="M43.403 81.042 73.65 52.37a3.5 3.5 0 0 0 1.068-2.14L80.004 3.89A3.493 3.493 0 0 0 76.534 0H5.466a3.493 3.493 0 0 0-3.47 3.889L7.282 50.23a3.5 3.5 0 0 0 1.067 2.139l30.248 28.672a3.493 3.493 0 0 0 4.806 0"/><path fill="#ffd15b" d="M76.534 0h-3.21a3.493 3.493 0 0 1 3.47 3.889L71.507 50.23a3.5 3.5 0 0 1-1.067 2.139L40.192 81.042a3.5 3.5 0 0 1-.797.566 3.49 3.49 0 0 0 4.008-.566L73.65 52.37a3.5 3.5 0 0 0 1.068-2.14L80.004 3.89A3.493 3.493 0 0 0 76.534 0"/><path fill="#f5f8f9" d="M13.984 48.07 9.501 8.77a1.34 1.34 0 0 1 1.332-1.493h60.329c.8 0 1.422.697 1.331 1.493l-4.483 39.3a1.34 1.34 0 0 1-.41.821L41.92 73.235a1.34 1.34 0 0 1-1.845 0L14.394 48.891a1.34 1.34 0 0 1-.41-.82"/><path fill="#e8edf2" d="M71.164 7.277h-4.085c.8 0 1.422.697 1.332 1.493l-4.483 39.3a1.34 1.34 0 0 1-.41.821L38.957 72.173l1.12 1.062a1.34 1.34 0 0 0 1.845 0l25.68-24.344a1.34 1.34 0 0 0 .41-.82L72.497 8.77a1.34 1.34 0 0 0-1.332-1.493"/><path fill="#7a8c98" d="M35.529 29.852c-.39 0-.774-.184-1.015-.528l-2.868-4.094a1.24 1.24 0 0 1 0-1.42l2.868-4.095a1.238 1.238 0 0 1 2.027 1.42L34.17 24.52l2.371 3.384a1.237 1.237 0 0 1-1.012 1.948M46.475 29.852a1.238 1.238 0 0 1-1.012-1.948l2.37-3.384-2.37-3.385a1.237 1.237 0 1 1 2.026-1.42l2.869 4.094c.299.427.299.994 0 1.42l-2.869 4.095c-.24.344-.624.528-1.014.528M39.12 29.655a1.237 1.237 0 0 1-1.113-1.777l3.772-7.796a1.237 1.237 0 1 1 2.227 1.078l-3.772 7.796a1.24 1.24 0 0 1-1.114.7M49.12 14.967H32.886a1.237 1.237 0 1 1 0-2.475H49.12a1.237 1.237 0 1 1 0 2.475"/><path fill="#fff3be" d="M75.386 59.987H6.614A6.614 6.614 0 0 1 0 53.373V42.232a6.614 6.614 0 0 1 6.614-6.615h68.772A6.614 6.614 0 0 1 82 42.232v11.14a6.614 6.614 0 0 1-6.614 6.615"/><path fill="#fedba6" d="M75.385 35.617h-4.537a6.614 6.614 0 0 1 6.614 6.615v11.141a6.614 6.614 0 0 1-6.614 6.614h4.537a6.614 6.614 0 0 0 6.614-6.614V42.232a6.614 6.614 0 0 0-6.614-6.615"/><path fill="#ffd15b" d="M20.99 49.041h-2.335a1.237 1.237 0 1 1 0-2.475h2.335a1.237 1.237 0 1 1 0 2.475M63.35 49.041h-2.335a1.237 1.237 0 1 1 0-2.475h2.334a1.237 1.237 0 1 1 0 2.475M41 67.118a1.237 1.237 0 0 1-1.238-1.238v-1.443a1.237 1.237 0 1 1 2.474 0v1.443c0 .684-.553 1.238-1.237 1.238"/><path fill="#7a8c98" d="M32.972 55.507c-1.29 0-2.399-.712-2.972-1.289a1.238 1.238 0 0 1 1.749-1.751c.051.049.93.874 1.752.417a1.38 1.38 0 0 0 .693-1.215V41.34a1.237 1.237 0 1 1 2.474 0v10.33c0 1.41-.753 2.705-1.966 3.379a3.5 3.5 0 0 1-1.73.459M47.234 55.502c-2.077 0-4.104-.868-5.421-2.322a1.237 1.237 0 0 1 1.833-1.662c.857.945 2.198 1.51 3.588 1.51 1.447 0 2.474-.906 2.63-1.782.156-.875-.55-1.67-1.936-2.181a70 70 0 0 1-3.836-1.556 1 1 0 0 1-.172-.093 3.73 3.73 0 0 1-1.665-3.696c.227-1.58 1.388-2.868 3.03-3.362 3.336-1.005 6.091 1.266 6.207 1.363a1.237 1.237 0 0 1-1.587 1.899c-.034-.028-1.875-1.504-3.907-.893-.72.217-1.203.72-1.293 1.344-.07.488.115.939.497 1.223.403.177 1.933.84 3.582 1.449 3.042 1.122 3.811 3.286 3.517 4.938-.39 2.178-2.568 3.821-5.067 3.821"/></g><defs><clipPath id="a"><path fill="#fff" d="M0 0h82v82H0z"/></clipPath></defs></svg>
